icon/cg/arrows-scroll-v.svg

<svg viewBox="0 0 24 24" fill="none" xmlns="http://www.w3.org/2000/svg" height="1em" width="1em">
  <path d="M13.4142 10.1091L13.4179 10.1128L12.0037 11.527L12 11.5233L11.9963 11.527L10.5821 10.1128L10.5858 10.1091L7.76105 7.28433L9.17526 5.87012L12 8.69486L14.8247 5.87012L16.239 7.28433L13.4142 10.1091Z" fill="currentColor"/>
  <path d="M12 15.3052L14.8247 18.1299L16.239 16.7157L13.4142 13.891L13.4179 13.8873L12.0037 12.4731L12 12.4767L11.9963 12.4731L10.5821 13.8873L10.5858 13.891L7.76105 16.7157L9.17526 18.1299L12 15.3052Z" fill="currentColor"/>
</svg>

<svg width="24" height="24" fill="none" xmlns="http://www.w3.org/2000/svg"><path d="m13.414 10.11.004.003-1.414 1.414-.004-.004-.004.004-1.414-1.414.004-.004L7.76 7.284 9.175 5.87 12 8.695l2.825-2.825 1.414 1.414-2.825 2.825ZM12 15.305l2.825 2.825 1.414-1.414-2.825-2.825.004-.004-1.414-1.414-.004.004-.004-.004-1.414 1.414.004.004-2.825 2.825 1.414 1.414L12 15.305Z" fill="currentColor"/></svg>
